_icons/SVG/241-miltank-shiny.svg

<svg xmlns="http://www.w3.org/2000/svg" width="32" height="32"><path fill="#532F42" d="M10.187 29.25l.981 2.026a.5.5 0 01-.447.724H6.339a.5.5 0 01-.447-.724l1.046-2.026h3.249z"/><ellipse fill="#7FB8E0" cx="8.781" cy="24.688" rx="4.656" ry="5.312"/><path fill="#8EC0E0" d="M11 6.25c0 .653.024 1.262.123 1.806.023.283-.126.781-.38 1.432-2.831.288-8.482 3.293-9.679 4.101-.08.054-.071.178.019.216.411.176 1.025.237 1.025.237s-.417.243-1.06.761c-.081.065-.055.197.047.221 1.632.39 5.077.101 7.513-.514C7.281 17 7 19.454 7 21.125 7 26.031 11.029 30 16 30V1c-2.899 0-5 2.35-5 5.25z"/><path fill="#532F42" d="M3.358 12.291c-1.064.551-1.909 1.039-2.294 1.298-.08.054-.071.178.019.216.411.176 1.025.237 1.025.237s-.417.243-1.06.761a.126.126 0 00.048.221c.563.134 1.342.188 2.22.176-.125-.575-.375-1.7.042-2.909z"/><path fill="#FFF5D8" d="M7.096 22.319C7.734 26.664 11.478 30 16 30V14.938c-4.971 0-8.5 5.062-8.904 7.381zm6.821 2.412c-.774 1.235-2.664 1.433-2.875.438-.22-1.039 1.492-1.438 2.375-1.438.284 0 .5.048.589.256.097.224.097.448-.089.744zm0-5.188c-.774 1.235-2.664 1.433-2.875.438-.22-1.039 1.492-1.438 2.375-1.438.284 0 .5.048.589.256.097.224.097.448-.089.744z"/><path fill="#FFEAA7" d="M27.062 7c.132.706 1.635 9.263-.958 12.042-3.5 3.75-6.927 3.896-10.104 3.896v3.188s7.042.464 11.312-3.806c4.271-4.271-.25-15.32-.25-15.32z"/><circle fill="#472236" cx="27.062" cy="7" r="2"/><path fill="#472236" d="M21.813 29.25l-.981 2.026a.5.5 0 00.447.724h4.382a.5.5 0 00.447-.724l-1.046-2.026h-3.249z"/><ellipse fill="#71B1E1" cx="23.219" cy="24.688" rx="4.656" ry="5.312"/><path fill="#7FB8E0" d="M21 6.25c0 .653-.024 1.262-.123 1.806-.023.283.126.781.38 1.432 2.831.288 8.482 3.293 9.679 4.101.08.054.071.178-.019.216-.411.176-1.025.237-1.025.237s.417.243 1.06.761c.081.065.054.197-.047.221-1.632.39-5.077.101-7.513-.514C24.719 17 25 19.454 25 21.125 25 26.031 20.971 30 16 30V1c2.899 0 5 2.35 5 5.25z"/><path fill="#FEF1C6" d="M13.395.109a.125.125 0 01.206-.078l1.289 1.12-1.781.893.286-1.935z"/><path fill="#532F42" d="M14.25 2.5c.646 0 1 1.047 1.75 1.047V1c-1.446 0-2.694.586-3.581 1.532-.09-.1-.177-.197-.294-.312-2.5-2.438-5.377-2.435-5.688-2-.312.438.422 1.88 1.854 2.562.784.373 2.257.818 3.312.961A5.573 5.573 0 0011 6.25c0 .703-.017 1.289 0 1.833.018.575-.041.805-.194 1.252 1.111 2.081 3.725 4.008 5.194 4.008v-3.281c-1.5-.062-3.334-1.186-3.688-2.218-.32-.936-.018-2.629.375-3.625.393-.997.969-1.719 1.563-1.719z"/><path fill="#532F42" d="M15.138 7.031c-.122 0-.184.13-.097.206l.862.758a.146.146 0 00.097.036v-1h-.862z"/><path fill="#8EC0E0" d="M16 1.75v1.156c-.333 0-.854-.677-.862-1 0 0 .404-.156.862-.156z"/><path fill="#FFF" d="M14.32 3.68c.691 0 1 1.301 1 2.07 0 .453-.938.5-1.25.5-.469 0-1-.225-1-.689s.398-1.881 1.25-1.881z"/><path fill="#4896C8" d="M14.763 3.891c-.698.294-1.155 1.656-1.065 2.309.122.032.249.05.372.05.312 0 1.25-.047 1.25-.5 0-.579-.175-1.459-.557-1.859z"/><path fill="#532F42" d="M14.602 5.031c-.219 0-.281.364-.281.812 0 .146.017.276.04.394.158-.012.337-.037.501-.084.014-.096.022-.2.022-.311-.001-.447-.048-.811-.282-.811z"/><path fill="#FFEAA7" d="M18.891 2.044l-1.781-.893 1.289-1.12a.125.125 0 01.206.078l.286 1.935z"/><path fill="#472236" d="M25.562.22c-.31-.435-3.187-.438-5.687 2-.117.114-.204.212-.294.312C18.694 1.586 17.446 1 16 1v2.547c.75 0 1.104-1.047 1.75-1.047.594 0 1.17.722 1.562 1.719.393.996.695 2.689.375 3.625C19.334 8.876 17.5 10 16 10.062v3.281c1.469 0 4.083-1.927 5.194-4.008-.153-.447-.212-.677-.194-1.252.017-.544 0-1.131 0-1.833 0-.913-.228-1.758-.604-2.506 1.055-.143 2.529-.588 3.312-.961C25.141 2.101 25.875.658 25.562.22z"/><path fill="#472236" d="M16.862 7.031c.122 0 .184.13.097.206l-.862.758a.146.146 0 01-.097.036v-1h.862z"/><path fill="#7FB8E0" d="M16.862 1.906c-.008.323-.529 1-.862 1V1.75c.458 0 .862.156.862.156z"/><path fill="#F7F7F7" d="M17.68 3.68c-.691 0-1 1.301-1 2.07 0 .453.938.5 1.25.5.469 0 1-.225 1-.689s-.398-1.881-1.25-1.881z"/><path fill="#4390BF" d="M17.237 3.891c.698.294 1.155 1.656 1.065 2.309a1.48 1.48 0 01-.372.05c-.312 0-1.25-.047-1.25-.5 0-.579.175-1.459.557-1.859z"/><path fill="#472236" d="M17.398 5.031c.219 0 .281.364.281.812 0 .146-.017.276-.04.394a2.571 2.571 0 01-.501-.084 2.157 2.157 0 01-.022-.311c.001-.447.048-.811.282-.811zm11.244 7.26c1.064.551 1.909 1.039 2.294 1.298.08.054.071.178-.019.216-.411.176-1.025.237-1.025.237s.417.243 1.06.761a.126.126 0 01-.048.221c-.563.134-1.342.188-2.22.176.125-.575.375-1.7-.042-2.909z"/><path fill="#FEF1C6" d="M16 14.938V30c4.522 0 8.266-3.336 8.904-7.681C24.5 20 20.971 14.938 16 14.938zm1.993 9.049c.089-.208.305-.256.589-.256.883 0 2.595.398 2.375 1.438-.211.996-2.101.798-2.875-.438-.185-.296-.185-.52-.089-.744zm0-5.188c.089-.208.305-.256.589-.256.883 0 2.595.398 2.375 1.438-.211.996-2.101.798-2.875-.438-.185-.296-.185-.52-.089-.744z"/></svg>

<?xml version="1.0" encoding="utf-8"?>
<!-- Generator: Adobe Illustrator 23.0.6, SVG Export Plug-In . SVG Version: 6.00 Build 0)  -->
<svg version="1.1" xmlns="http://www.w3.org/2000/svg" xmlns:xlink="http://www.w3.org/1999/xlink" x="0px" y="0px" width="32px"
	 height="32px" viewBox="0 0 32 32" enable-background="new 0 0 32 32" xml:space="preserve">
<g id="labels">
	<g>
	</g>
</g>
<g id="icons">
	<g>
		<path fill="#532F42" d="M10.187,29.25l0.981,2.026C11.335,31.609,11.093,32,10.721,32H6.339c-0.372,0-0.613-0.391-0.447-0.724
			l1.046-2.026H10.187z"/>
		<ellipse fill="#7FB8E0" cx="8.781" cy="24.688" rx="4.656" ry="5.312"/>
		<path fill="#8EC0E0" d="M11,6.25c0,0.653,0.024,1.262,0.123,1.806c0.023,0.283-0.126,0.781-0.38,1.432
			c-2.831,0.288-8.482,3.293-9.679,4.101c-0.08,0.054-0.071,0.178,0.019,0.216c0.411,0.176,1.025,0.237,1.025,0.237
			s-0.417,0.243-1.06,0.761C0.967,14.868,0.993,15,1.095,15.024c1.632,0.39,5.077,0.101,7.513-0.514C7.281,17,7,19.454,7,21.125
			C7,26.031,11.029,30,16,30V1C13.101,1,11,3.35,11,6.25z"/>
		<path fill="#532F42" d="M3.358,12.291c-1.064,0.551-1.909,1.039-2.294,1.298c-0.08,0.054-0.071,0.178,0.019,0.216
			c0.411,0.176,1.025,0.237,1.025,0.237s-0.417,0.243-1.06,0.761C0.966,14.869,0.994,15,1.096,15.024
			c0.563,0.134,1.342,0.188,2.22,0.176C3.191,14.625,2.941,13.5,3.358,12.291z"/>
		<path fill="#FFF5D8" d="M7.096,22.319C7.734,26.664,11.478,30,16,30V14.938C11.029,14.938,7.5,20,7.096,22.319z M13.917,24.731
			c-0.774,1.235-2.664,1.433-2.875,0.438c-0.22-1.039,1.492-1.438,2.375-1.438c0.284,0,0.5,0.048,0.589,0.256
			C14.103,24.211,14.103,24.435,13.917,24.731z M13.917,19.543c-0.774,1.235-2.664,1.433-2.875,0.438
			c-0.22-1.039,1.492-1.438,2.375-1.438c0.284,0,0.5,0.048,0.589,0.256C14.103,19.023,14.103,19.247,13.917,19.543z"/>
		<path fill="#FFEAA7" d="M27.062,7c0.132,0.706,1.635,9.263-0.958,12.042c-3.5,3.75-6.927,3.896-10.104,3.896v3.188
			c0,0,7.042,0.464,11.312-3.806C31.583,18.049,27.062,7,27.062,7z"/>
		<circle fill="#472236" cx="27.062" cy="7" r="2"/>
		<path fill="#472236" d="M21.813,29.25l-0.981,2.026C20.665,31.609,20.907,32,21.279,32h4.382c0.372,0,0.613-0.391,0.447-0.724
			l-1.046-2.026H21.813z"/>
		<ellipse fill="#71B1E1" cx="23.219" cy="24.688" rx="4.656" ry="5.312"/>
		<path fill="#7FB8E0" d="M21,6.25c0,0.653-0.024,1.262-0.123,1.806c-0.023,0.283,0.126,0.781,0.38,1.432
			c2.831,0.288,8.482,3.293,9.679,4.101c0.08,0.054,0.071,0.178-0.019,0.216c-0.411,0.176-1.025,0.237-1.025,0.237
			s0.417,0.243,1.06,0.761c0.081,0.065,0.054,0.197-0.047,0.221c-1.632,0.39-5.077,0.101-7.513-0.514C24.719,17,25,19.454,25,21.125
			C25,26.031,20.971,30,16,30V1C18.899,1,21,3.35,21,6.25z"/>
		<g>
			<path fill="#FEF1C6" d="M13.395,0.109c0.013-0.099,0.131-0.143,0.206-0.078l1.289,1.12l-1.781,0.893L13.395,0.109z"/>
			<path fill="#532F42" d="M14.25,2.5c0.646,0,1,1.047,1.75,1.047V1c-1.446,0-2.694,0.586-3.581,1.532
				c-0.09-0.1-0.177-0.197-0.294-0.312c-2.5-2.438-5.377-2.435-5.688-2c-0.312,0.438,0.422,1.88,1.854,2.562
				c0.784,0.373,2.257,0.818,3.312,0.961C11.228,4.492,11,5.337,11,6.25c0,0.703-0.017,1.289,0,1.833
				c0.018,0.575-0.041,0.805-0.194,1.252c1.111,2.081,3.725,4.008,5.194,4.008v-3.281C14.5,10,12.666,8.876,12.312,7.844
				c-0.32-0.936-0.018-2.629,0.375-3.625C13.08,3.222,13.656,2.5,14.25,2.5z"/>
			<path fill="#532F42" d="M15.138,7.031c-0.122,0-0.184,0.13-0.097,0.206l0.862,0.758C15.93,8.019,15.965,8.031,16,8.031v-1H15.138
				z"/>
			<path fill="#8EC0E0" d="M16,1.75c0,0.375,0,1.156,0,1.156c-0.333,0-0.854-0.677-0.862-1C15.138,1.906,15.542,1.75,16,1.75z"/>
			<path fill="#FFFFFF" d="M14.32,3.68c0.691,0,1,1.301,1,2.07c0,0.453-0.938,0.5-1.25,0.5c-0.469,0-1-0.225-1-0.689
				S13.468,3.68,14.32,3.68z"/>
			<path fill="#4896C8" d="M14.763,3.891c-0.698,0.294-1.155,1.656-1.065,2.309C13.82,6.232,13.947,6.25,14.07,6.25
				c0.312,0,1.25-0.047,1.25-0.5C15.32,5.171,15.145,4.291,14.763,3.891z"/>
			<path fill="#532F42" d="M14.602,5.031c-0.219,0-0.281,0.364-0.281,0.812c0,0.146,0.017,0.276,0.04,0.394
				c0.158-0.012,0.337-0.037,0.501-0.084c0.014-0.096,0.022-0.2,0.022-0.311C14.883,5.395,14.836,5.031,14.602,5.031z"/>
			<path fill="#FFEAA7" d="M18.891,2.044l-1.781-0.893l1.289-1.12c0.075-0.065,0.193-0.021,0.206,0.078L18.891,2.044z"/>
			<path fill="#472236" d="M25.562,0.22c-0.31-0.435-3.187-0.438-5.687,2c-0.117,0.114-0.204,0.212-0.294,0.312
				C18.694,1.586,17.446,1,16,1v2.547c0.75,0,1.104-1.047,1.75-1.047c0.594,0,1.17,0.722,1.562,1.719
				c0.393,0.996,0.695,2.689,0.375,3.625C19.334,8.876,17.5,10,16,10.062v3.281c1.469,0,4.083-1.927,5.194-4.008
				C21.041,8.888,20.982,8.658,21,8.083c0.017-0.544,0-1.131,0-1.833c0-0.913-0.228-1.758-0.604-2.506
				c1.055-0.143,2.529-0.588,3.312-0.961C25.141,2.101,25.875,0.658,25.562,0.22z"/>
			<path fill="#472236" d="M16.862,7.031c0.122,0,0.184,0.13,0.097,0.206l-0.862,0.758C16.07,8.019,16.035,8.031,16,8.031v-1H16.862
				z"/>
			<path fill="#7FB8E0" d="M16.862,1.906c-0.008,0.323-0.529,1-0.862,1c0,0,0-0.781,0-1.156C16.458,1.75,16.862,1.906,16.862,1.906z
				"/>
			<path fill="#F7F7F7" d="M17.68,3.68c-0.691,0-1,1.301-1,2.07c0,0.453,0.938,0.5,1.25,0.5c0.469,0,1-0.225,1-0.689
				S18.532,3.68,17.68,3.68z"/>
			<path fill="#4390BF" d="M17.237,3.891c0.698,0.294,1.155,1.656,1.065,2.309C18.18,6.232,18.053,6.25,17.93,6.25
				c-0.312,0-1.25-0.047-1.25-0.5C16.68,5.171,16.855,4.291,17.237,3.891z"/>
			<path fill="#472236" d="M17.398,5.031c0.219,0,0.281,0.364,0.281,0.812c0,0.146-0.017,0.276-0.04,0.394
				c-0.158-0.012-0.337-0.037-0.501-0.084c-0.014-0.096-0.022-0.2-0.022-0.311C17.117,5.395,17.164,5.031,17.398,5.031z"/>
		</g>
		<path fill="#472236" d="M28.642,12.291c1.064,0.551,1.909,1.039,2.294,1.298c0.08,0.054,0.071,0.178-0.019,0.216
			c-0.411,0.176-1.025,0.237-1.025,0.237s0.417,0.243,1.06,0.761c0.082,0.066,0.054,0.197-0.048,0.221
			c-0.563,0.134-1.342,0.188-2.22,0.176C28.809,14.625,29.059,13.5,28.642,12.291z"/>
		<path fill="#FEF1C6" d="M16,14.938V30c4.522,0,8.266-3.336,8.904-7.681C24.5,20,20.971,14.938,16,14.938z M17.993,23.987
			c0.089-0.208,0.305-0.256,0.589-0.256c0.883,0,2.595,0.398,2.375,1.438c-0.211,0.996-2.101,0.798-2.875-0.438
			C17.897,24.435,17.897,24.211,17.993,23.987z M17.993,18.799c0.089-0.208,0.305-0.256,0.589-0.256
			c0.883,0,2.595,0.398,2.375,1.438c-0.211,0.996-2.101,0.798-2.875-0.438C17.897,19.247,17.897,19.023,17.993,18.799z"/>
	</g>
</g>
</svg>
